X:482
T:Morrison's Jig
M:6/8
R:Jig
O:Ireland
K:Em
|"Em"E2E B2B|E2E "D"AFD|"Em"E2E B2B|"D"dcB AFD|\
"Em"E2E B2B|E2E "D"AFD|"G"GBG "D"FGA|"G"dAG "D"FED:|\
"Em"Bee fee|aee fed|Bee fee|"D"a2g fed|\
"Em"Bee fee|aee fed|"G"gfe d2A|BAG "D"FED|\
"Em"Bee fee|aee fed|Bee fee|"D"faf def|\
"G"g2g gfe|"D"def "G"gfg|ed^c "D"d2 A|"G"BAG "D"FED||
